X:1
T:Gloria's Dream Waltz
T:Hesitation
T:Louis F. Gottschalk
T:Copyright 1914 by M. Witmark &amp; Sons
T:Copyright 1914 by M. Witmark &amp; Sons
T:Copyright 1914 by M. Witmark &amp; Sons
T:Copyright 1914 by M. Witmark &amp; Sons
T:Copyright 1914 by M. Witmark &amp; Sons
T:Copyright 1914 by M. Witmark &amp; Sons
T:Copyright 1914 by M. Witmark &amp; Sons
Z:Copyright 1914 by M. Witmark & Sons
%%score { ( 1 4 ) | ( 2 3 ) }
L:1/8
Q:1/4=110
M:4/4
K:Ab
V:1 treble nm="Piano" snm="Pno."
V:4 treble 
V:2 bass 
V:3 bass 
V:1
!mf!"^Moderato" ([CEAc]2 | [=B,EA=B]3 [CEAc] [G,CEG]3 [A,CEA] | %2
 [F,A,CF]4- [F,A,CF]/)!<(!(E/F/G/ A/c/e/g/!<)! |!f! a2 e'2 f2 a2 | g6)!mf! ([Dd]2 | %5
 [CEGc]3 [B,DGB] [=A,C^F=A]3 [B,DGB] | [=F,B,D=F]6)!<(! ([F,B,DF]2!<)! | %7
!f! [DFB]6)"_poco rit."!mf!!<(! ([F,B,DF]2!<)! | %8
[Q:1/4=101]!f! [=B,DG=B]4-)[Q:1/4=55] !breath!!fermata![B,DGB]2[Q:1/4=92] || %9
[M:3/4][Q:1/4=150]"^Dreamily"!mf! ([Cc]2 |: [=B,=B]4 [Cc]2 | [G,G]4 [A,A]2 | [F,F]6) | %13
!<(! (EFGAce)!<)! |!f! ([Gg]4 [Aa]2 | [Ee]4 [Cc]2 | [Dd]6- | [Dd]4)!mf! ([Dd]2 | [Cc]4 [B,B]2 | %19
 [=A,=A]4 [B,B]2 | [=F,=F]6-) | [F,F]4 ([B,B]2 |"_poco rit." [F,F]4[Q:1/4=146][Q:1/4=142] [B,B]2 | %23
[Q:1/4=139] [F,F]4[Q:1/4=135][Q:1/4=131] [B,B]2 |[Q:1/4=128] [F,F]6-[Q:1/4=124][Q:1/4=120] | %25
[Q:1/4=116] [F,F]4)[Q:1/4=112][Q:1/4=150]"_a tempo" ([Cc]2 | [=B,=B]4 [Cc]2 | [G,G]4 [A,A]2 | %28
 [F,F]6) |!<(! (EFGAce)!<)! |!ff! ([Gg]4 [Aa]2 | [Bb]4 [Aa]2 | [Aa]6- | [Aa]4) ([Aa]2 | %34
 [A=da]4 [Ada]2 | [=DA=d]4 [DAd]2 | [EAce]4 [EAce]2 | [E=Ac]4) ([EAc]2 | %38
"_poco rit." [FBd]2[Q:1/4=146] [Ff]2[Q:1/4=142] F2 | %39
[Q:1/4=138] [Gc]2[Q:1/4=133] [Ge]2[Q:1/4=129] [Gc]2 |1 %40
[Q:1/4=125] .[CA]) z[Q:1/4=121]!>(! [Ee]2[Q:1/4=117] [Ee]2 | %41
[Q:1/4=112] [Ee]!>)!!mf! z[Q:1/4=150] (z2 [Cc]2) :|2[Q:1/4=125] ([CA]6[Q:1/4=121][Q:1/4=117] | %43
!sfz![Q:1/4=112] .[cea]) z[Q:1/4=150]!mf!!<(! (E=DE=E)!<)! ||!f! !>![F,F]6 | !>![G,G]6 | %46
 .[CA]2 (AGAc | .e2)!p! .[ca].[Af].[ca].[Af] | ([da]4 [Bf]2) | z2 .[da].[Bf].[dg].[Ge] | (f4 e2) | %51
 z2!<(! (E=DE=E)!<)! |!mf! !>![F,F]6 | !>![G,G]6 | .[CA]2 (AGAc | %55
 .e) z!<(! ([Ee][=D=d][Ee][Ff]!<)! |!ff! !>![Gg]6) | !>![Dd]6 | [=Ec]2 .[g=e'].[=ec'].[ge'].[eg] | %59
 .[=ec']2!f!!<(! (E=DE=E)!<)! |!ff! !>![F,F]6 | !>![G,G]6 | .[CA]2 (AGAc | %63
 .e2)!p! .[ca].[Af].[ca].[Af] | ([da]4 [Bf]2) | z2 .[da].[Bf].[dg].[Ge] | (f4 e2) | z2 (E=DE=E) | %68
 !>![F,F]6 | !>![G,G]6 | .[CA]2 (AGAc | .e2) (E=DE=E | %72
"_poco rit." !>![F,F]6[Q:1/4=146][Q:1/4=142] |[Q:1/4=139] c6[Q:1/4=135][Q:1/4=131] | %74
[Q:1/4=128] [CEA]2)[Q:1/4=124] .[EAc]2[Q:1/4=120] .[Ace]2 | %75
!sfz![Q:1/4=116] .[Aca]2[Q:1/4=112] z2[Q:1/4=150]!mf! ([Cc]2 || %76
[Q:1/4=150]"^Tempo I" [=B,=B]4 [Cc]2 | [G,G]4 [A,A]2 | [F,F]6) |!<(! (EFGAce)!<)! | %80
!f! ([Gg]4 [Aa]2 | [Ee]4 [Cc]2 | [Dd]6- | [Dd]4)!mf! ([Dd]2 | [Cc]4 [B,B]2 | [=A,=A]4 [B,B]2 | %86
 [=F,=F]6-) | [F,F]4 ([B,B]2 | [F,F]4 [B,B]2 | [F,F]4 [B,B]2 | [F,F]6- | [F,F]4) ([Cc]2 | %92
 [=B,=B]4 [Cc]2 | [G,G]4 [A,A]2 | [F,F]6) | (EFGAce) |!ff! ([Gg]4 [Aa]2 | [Bb]4 [Aa]2 | [Aa]6- | %99
 [Aa]4) ([Aa]2 | [A=da]4 [Ada]2 | [=DA=d]4 [DAd]2 | [EAce]4 [EAce]2 | [E=Ac]4) ([EAc]2 | %104
"_poco rit." [FBd]2[Q:1/4=147] [Ff]2[Q:1/4=143] F2 | %105
[Q:1/4=140] [Gc]2[Q:1/4=136] [Ge]2[Q:1/4=133] [Gc]2 |[Q:1/4=130] ([CA]6)[Q:1/4=126][Q:1/4=123] | %107
!sfz![Q:1/4=119] .[Aea]2)[Q:1/4=116] z2[Q:1/4=112] z2 |: %108
[K:Db][Q:1/4=150]!p!"_a tempo"{/f} d2{/f} B2 z2 |{/f} d2{/f} B2 z2 |{/f} d2{/f} B3 d | g6 | %112
{/f} d2{/f} B2 z2 |{/f} d2{/f} B2 z2 |{/f} d2{/f} B3 d | g6 | [Adfa]6 |"_cresc." [Bdfb]6 | %118
 [cfac']4 [faf']2 | [cfac']6 |!f! [Cc]4 [B,B]2 | [=G,=G]4 [Dd]2 |!>(! [Cc]6 | [Cc]6!>)! | %124
!p!{/f} d2{/f} B2 z2 |{/f} d2{/f} B2 z2 |{/f} d2{/f} B3 d | g6 |{/f} d2{/f} B2 z2 | %129
{/f} d2{/f} B2 z2 |{/f} d2{/f} B3 d | g6 |!ff! [FAd]6 | [Adfa]6 | [GBdg]6 | ([GBeg]6 | [FAdf]6 | %137
 [GAce]6 |1 [Fd]2)!f!!<(! ([da]2 [d=gb]2 | .[c_gc']2)!<)!!ff!!>(! (a'2!p! a2)!>)! :|2!>(! [Fd]6- | %141
 [Fd]2!>)! z2!mf! ([Cc]2 ||[K:Ab] [=B,=B]4 [Cc]2 | [G,G]4 [A,A]2 | [F,F]6) |!<(! (EFGAce)!<)! | %146
!f! ([Gg]4 [Aa]2 | [Ee]4 [Cc]2 | [Dd]6- | [Dd]4)!mf! ([Dd]2 | [Cc]4 [B,B]2 | [=A,=A]4 [B,B]2 | %152
 [=F,=F]6-) | [F,F]4 ([B,B]2 |"_poco rit." [F,F]4[Q:1/4=146][Q:1/4=142] [B,B]2 | %155
[Q:1/4=139] [F,F]4[Q:1/4=135][Q:1/4=131] [B,B]2 |[Q:1/4=128] [F,F]6-[Q:1/4=124][Q:1/4=120] | %157
[Q:1/4=116] [F,F]4)[Q:1/4=112]"_a tempo"[Q:1/4=150] ([Cc]2 | [=B,=B]4 [Cc]2 | [G,G]4 [A,A]2 | %160
 [F,F]6) |!<(! (EFGAce)!<)! |!ff! ([Gg]4 [Aa]2 | [Bb]4 [Aa]2 | [Aa]6- | [Aa]4) ([Aa]2 | %166
 [A=da]4 [Ada]2 | [=DA=d]4 [DAd]2 | [EAce]4 [EAce]2 | [E=Ac]4) [EAc]2 | %170
"_poco rit." [FBd]2[Q:1/4=146] [Ff]2[Q:1/4=142] F2 | %171
[Q:1/4=138] [Gc]2[Q:1/4=133] [Ge]2[Q:1/4=129] [Gc]2 |[Q:1/4=125] ([CA]6[Q:1/4=121][Q:1/4=117] | %173
!sfz![Q:1/4=112] .[cea]) z!mf!"^più moto"[Q:1/4=160]!<(! (E=DE=E)!<)! ||!f! !>![F,F]6 | !>![G,G]6 | %176
 .[CA]2 (AGAc | .e2) (E=DE=E) | !>![F,F]6 | !>![G,G]4 ([Cc]2 | [=B,=B]4 [Cc]2 | [G,G]4 [A,A]2 | %182
 .[F,F]2)[Q:1/4=164]"_cresc." .=B,2[Q:1/4=167] .C2 | %183
[Q:1/4=171] .=D2[Q:1/4=174] .E2[Q:1/4=178] .G2 |[Q:1/4=182] .A2[Q:1/4=185] .=B2[Q:1/4=189] .c2 | %185
[Q:1/4=192] .=d2[Q:1/4=196] .e2[Q:1/4=200] .a2 |[Q:1/4=203] .c'2[Q:1/4=207] z2[Q:1/4=210] z2 | %187
!ff![Q:1/4=214] .[ceac']2[Q:1/4=218] z2[Q:1/4=221] z2 | %188
[Q:1/4=113]!<(!{/.!fermata![A,CEA]} (!>!!fermata![A,CEA]6!<)! | %189
!fff![Q:1/4=225] !>![ac'a']2) z2 z2 |] %190
V:2
 z2 | z .[A,,,A,,].[A,,,A,,] z z .[A,,,A,,].[A,,,A,,] z | %2
 z .[A,,,A,,].[A,,,A,,].[A,,,A,,] .[A,,,A,,] z z2 |[I:staff -1] [ce]4 [_ce]4 | %4
[I:staff +1] z2 .[E,,E,]2 .[E,,E,]2 z2 | z .[E,,E,].[E,,E,] z z .[E,,E,].[E,,E,] z | %6
 z .[E,,E,].[E,,E,].[E,,E,] .[E,,E,]2 z2 | z2 .[E,,E,]2 .[E,,E,]2 z2 | %8
 z2 [E,,E,]2 !fermata![E,,E,]2 ||[M:3/4] z2 |: [A,,,A,,]6 | [E,,,E,,]6 | [A,,,A,,]6 | z6 | C,6 | %15
 =A,,6 | B,,6 | E,,2 E,2 z2 | E,,6 | E,,6 | E,,6 | E,,6 | B,,,2 B,,4 | E,,2 E,4 | (A,,,6 | %25
 A,,4) z2 | [A,,,A,,]6 | [E,,,E,,]6 | [A,,,A,,]6 | z6 | C,6 | C,6 | D,6 | D,6 | [_F,,_F,]6 | %35
 [_F,,_F,]6 | [E,,E,]6 | [F,,F,]6 | [B,,B,]2 [F,B,D]2 [F,B,D]2 | [E,,E,]2 [E,G,D]2 [E,G,D]2 |1 %40
 .[A,,A,] z (E2 C2 | D) z z2 z2 :|2 ([A,,A,]2 E,2 C,2 | .A,,) z (E,=D,E,=E,) || [B,,,B,,]6 | %45
 [E,,E,]6 | .[A,,E,]2 (A,G,A,C | .E2) z2 z2 | B,,2 [B,DF]2 [B,DF]2 | E,,2 [E,B,D]2 [E,B,D]2 | %50
 A,,2 [E,A,C]2 [E,A,C]2 | z2 (E,=D,E,=E,) | B,,6 | [E,,E,]6 | .[A,,E,]2 (A,G,A,C | .E) z z2 z2 | %56
 [G,,,G,,]2 [G,C=E]4 | [G,,,G,,]2 [G,=B,]4 | [C,,C,]6- | [C,,C,]2 (E,=D,E,=E,) | [B,,,B,,]6 | %61
 [E,,E,]6 | .[A,,E,]2 (A,G,A,C | .E2) z2 z2 | B,,2 [B,DF]2 [B,DF]2 | E,,2 [E,B,D]2 [E,B,D]2 | %66
 A,,2 [E,A,C]2 [E,A,C]2 | z2 (E,=D,E,=E,) | B,,6 | [E,,E,]6 | .[A,,E,]2 (A,G,A,C | %71
 .E2) (E,=D,E,=E, | [B,,,B,,]6) | [E,,E,]6 | [A,,A,]2 .[E,,E,]2 .[C,,C,]2 | .[A,,,A,,]2 z2 z2 || %76
 [A,,,A,,]6 | [E,,,E,,]6 | [A,,,A,,]6 | z6 | C,6 | =A,,6 | B,,6 | E,,2 E,2 z2 | E,,6 | E,,6 | %86
 E,,6 | E,,6 | B,,,2 B,,4 | E,,2 E,4 | (A,,,6 | A,,4) z2 | [A,,,A,,]6 | [E,,,E,,]6 | [A,,,A,,]6 | %95
 z6 | C,6 | C,6 | D,6 | D,6 | [_F,,_F,]6 | [_F,,_F,]6 | [E,,E,]6 | [F,,F,]6 | %104
 [B,,B,]2 [F,B,D]2 [F,B,D]2 | [E,,E,]2 [E,G,D]2 [E,G,D]2 | ([A,,A,]2 E,2 C,2 | .A,,2) z2 z2 |: %108
[K:Db] D,2 [A,DF]2 [A,DF]2 | A,,2 [A,DF]2 [A,DF]2 | E,2 [B,DG]2 [B,DG]2 | A,,6 | %112
 D,2 [A,DF]2 [A,DF]2 | A,,2 [A,DF]2 [A,DF]2 | E,2 [B,DG]2 [B,DG]2 | A,,6 | %116
 [D,,D,]2 [A,DF]2 [A,DF]2 | [D,,D,]2 [A,DF]2 [A,DF]2 | [C,,C,]2 [A,CF]2 [A,CF]2 | %119
 [C,,C,]2 [A,CF]2 [A,CF]2 | [C,,C,]6 | [C,,C,]6 | [F,,F,]6 | [E,,E,]6 | D,2 [A,DF]2 [A,DF]2 | %125
 A,,2 [A,DF]2 [A,DF]2 | E,2 [B,DG]2 [B,DG]2 | A,,6 | D,2 [A,DF]2 [A,DF]2 | A,,2 [A,DF]2 [A,DF]2 | %130
 E,2 [B,DG]2 [B,DG]2 | A,,6 | [D,,D,]2 [F,A,D]2 [F,A,D]2 | [D,,D,]2 [F,A,_CD]2 [F,A,CD]2 | %134
 [G,,G,]2 [G,B,D]2 [G,B,D]2 | [E,,E,]2 [G,B,E]2 [G,B,E]2 | [A,,,A,,]2 [F,A,D]2 [F,A,D]2 | %137
 [A,,,A,,]2 [G,A,C]2 [G,A,C]2 |1 [D,A,D]2[I:staff -1] ([FA]2 [_FA]2 | .[EA]2)[I:staff +1] z2 z2 :|2 %140
 ([D,D]2 A,2 F,2 | D,2) z2 z2 ||[K:Ab] [A,,,A,,]6 | [E,,,E,,]6 | [A,,,A,,]6 | z6 | C,6 | =A,,6 | %148
 B,,6 | E,,2 E,2 z2 | E,,6 | E,,6 | E,,6 | E,,6 | B,,,2 B,,4 | E,,2 E,4 | (A,,,6 | A,,4) z2 | %158
 [A,,,A,,]6 | [E,,,E,,]6 | [A,,,A,,]6 | z6 | C,6 | C,6 | D,6 | D,6 | [_F,,_F,]6 | [_F,,_F,]6 | %168
 [E,,E,]6 | [F,,F,]6 | [B,,B,]2 [F,B,D]2 [F,B,D]2 | [E,,E,]2 [E,G,D]2 [E,G,D]2 | %172
 ([A,,A,]2 E,2 C,2 | .A,,) z (E,=D,E,=E,) || [B,,,B,,]6 | [E,,E,]6 | .[A,,E,]2 (A,G,A,C | %177
 .E2) (E,=D,E,=E,) | [B,,,B,,]6 | [E,,E,]4 z2 | [A,,,A,,]6 | [E,,,E,,]6 | .[A,,,A,,]2 .=B,,2 .C,2 | %183
 .=D,2 .E,2 .G,2 | .A,2 .=B,2 .C2 | .=D2 .E2[I:staff -1] .A2 | .c2[I:staff +1] z2 z2 | %187
 .[A,CEA]2 z2 z2 |{/.!fermata![A,,,A,,]} !>!!fermata![A,,,A,,]6 | !>![A,,,A,,]2 z2 z2 |] %190
V:3
 x2 | x8 | x8 | x8 |[I:staff -1] [Bd]6 x2 | x8 | x8 | x8 | x6 ||[M:3/4] x2 |: x6 | x6 | x6 | x6 | %14
[I:staff +1] z2 [A,E]4 | z2 =A,4 | z2 B,4 | x6 | z2 E,4 | z2 E,4 | z2 E,4 | z2 E,4 | x6 | x6 | x6 | %25
 x6 | x6 | x6 | x6 | x6 | z2 [A,E]4 | z2 [A,=E]4 | z2 [A,F]4 | z2 [A,F]4 | z2 [_F,A,=D]4 | %35
 z2 [_F,A,=D]4 | z2 [E,A,C]4 | z2 !>!D2 C2 | x6 | x6 |1 x6 | x6 :|2 x6 | x6 || x6 | x6 | x6 | x6 | %48
 x6 | x6 | x6 | x6 | x6 | x6 | x6 | x6 | x6 | x6 | z2 [G,C=E]2 [G,CE]2 | .[G,C=E]2 x4 | x6 | x6 | %62
 x6 | x6 | x6 | x6 | x6 | x6 | x6 | x6 | x6 | x6 | x6 | x6 | x6 | x6 || x6 | x6 | x6 | x6 | %80
 z2 [A,E]4 | z2 =A,4 | z2 B,4 | x6 | z2 E,4 | z2 E,4 | z2 E,4 | z2 E,4 | x6 | x6 | x6 | x6 | x6 | %93
 x6 | x6 | x6 | z2 [A,E]4 | z2 [A,=E]4 | z2 [A,F]4 | z2 [A,F]4 | z2 [_F,A,=D]4 | z2 [_F,A,=D]4 | %102
 z2 [E,A,C]4 | z2 (!>!D2 C2) | x6 | x6 | x6 | x6 |:[K:Db] x6 | x6 | x6 | z2 (D2 C2) | x6 | x6 | %114
 x6 | z2 (D2 C2) | x6 | x6 | x6 | x6 | x6 | x6 | x6 | x6 | x6 | x6 | x6 | z2 (D2 C2) | x6 | x6 | %130
 x6 | z2 (D2 C2) | x6 | x6 | x6 | x6 | x6 | x6 |1 x6 | x6 :|2 x6 | x6 ||[K:Ab] x6 | x6 | x6 | x6 | %146
 z2 [A,E]4 | z2 =A,4 | z2 B,4 | x6 | z2 E,4 | z2 E,4 | z2 E,4 | z2 E,4 | x6 | x6 | x6 | x6 | x6 | %159
 x6 | x6 | x6 | z2 [A,E]4 | z2 [A,=E]4 | z2 [A,F]4 | z2 [A,F]4 | z2 [_F,A,=D]4 | z2 [_F,A,=D]4 | %168
 z2 [E,A,C]4 | z2 (!>!D2 C2) | x6 | x6 | x6 | x6 || x6 | x6 | x6 | x6 | x6 | x6 | x6 | x6 | x6 | %183
 x6 | x6 | x6 | x6 | x6 | x6 | x6 |] %190
V:4
 x2 | x8 | x8 | x8 | x8 | x8 | x8 | x8 | x6 ||[M:3/4] x2 |: z2 [EA]2 z2 | z2 [CE]2 z2 | %12
 z2 [A,C]2 [A,C]2 | x6 | z2 [ce]2 z2 | z2 [^Fc]2 z2 | z2 [EG]2 [EG]2 | z2 [EG]2 z2 | z2 [EG]2 z2 | %19
 z2 [E^F]2 z2 | z2 [B,D]2 [B,D]2 | z2 [B,D]2 z2 | z2 [A,D]2 z2 | z2 [G,D]2 z2 | z2 [A,C]2 [A,C]2 | %25
 z2 [A,C]2 x2 | z2 [EA]2 z2 | z2 [CE]2 z2 | z2 [A,C]2 [A,C]2 | x6 | z2 [ce]2 z2 | z2 [c=e]2 z2 | %32
 z2 [df]2 [df]2 | z2 [df]2 z2 | x6 | x6 | x6 | x6 | x6 | x6 |1 x6 | x6 :|2 x6 | x6 || %44
 z2 [B,_D][B,D][B,D][B,D] | z2 [DE][DE][DE][DE] | x6 | x6 | x6 | x6 | [Ac]6 | x6 | %52
 z2 [B,_D][B,D][B,D][B,D] | z2 [DE][DE][DE][DE] | x6 | x6 | z2 [c=e][ce][ce][ce] | %57
 z2 [FG][FG][FG][FG] | x6 | x6 | z2 [B,_D][B,D][B,D][B,D] | z2 [DE][DE][DE][DE] | x6 | x6 | x6 | %65
 x6 | [Ac]6 | x6 | z2 [B,_D][B,D][B,D][B,D] | z2 [DE][DE][DE][DE] | x6 | x6 | %72
 z2 [B,_D][B,D][B,D][B,D] | z2 [DG][DG][DG][DG] | x6 | x6 || z2 [EA]2 z2 | z2 [CE]2 z2 | %78
 z2 [A,C]2 [A,C]2 | x6 | z2 [ce]2 z2 | z2 [^Fc]2 z2 | z2 [EG]2 [EG]2 | z2 [EG]2 z2 | z2 [EG]2 z2 | %85
 z2 [E^F]2 z2 | z2 [B,D]2 [B,D]2 | z2 [B,D]2 z2 | z2 [A,D]2 z2 | z2 [G,D]2 z2 | z2 [A,C]2 [A,C]2 | %91
 z2 [A,C]2 x2 | z2 [EA]2 z2 | z2 [CE]2 z2 | z2 [A,C]2 [A,C]2 | x6 | z2 [ce]2 z2 | z2 [c=e]2 z2 | %98
 z2 [df]2 [df]2 | z2 [df]2 z2 | x6 | x6 | x6 | x6 | x6 | x6 | x6 | x6 |:[K:Db] x6 | x6 | x6 | %111
 (c2 B2 A2) | x6 | x6 | x6 | (c2 B2 A2) | x6 | x6 | x6 | x6 | z2 [=E=G]2 z2 | z2 [C=E]2 z2 | %122
 z2 [FA]2 [FA]2 | z2 [GA]2 [GA]2 | x6 | x6 | x6 | (c2 B2 A2) | x6 | x6 | x6 | (c2 B2 A2) | x6 | %133
 x6 | x6 | x6 | x6 | x6 |1 x6 | x6 :|2 x6 | x6 ||[K:Ab] z2 [EA]2 z2 | z2 [CE]2 z2 | %144
 z2 [A,C]2 [A,C]2 | x6 | z2 [ce]2 z2 | z2 [^Fc]2 z2 | z2 [EG]2 [EG]2 | z2 [EG]2 z2 | z2 [EG]2 z2 | %151
 z2 [E^F]2 z2 | z2 [B,D]2 [B,D]2 | z2 [B,D]2 z2 | z2 [A,D]2 z2 | z2 [G,D]2 z2 | z2 [A,C]2 [A,C]2 | %157
 z2 [A,C]2 x2 | z2 [EA]2 z2 | z2 [CE]2 z2 | z2 [A,C]2 [A,C]2 | x6 | z2 [ce]2 z2 | z2 [c=e]2 z2 | %164
 z2 [df]2 [df]2 | z2 [df]2 z2 | x6 | x6 | x6 | x6 | x6 | x6 | x6 | x6 || z2 [B,_D][B,D][B,D][B,D] | %175
 z2 [DE][DE][DE][DE] | x6 | x6 | z2 [B,_D][B,D][B,D][B,D] | z2 [DE]2 x2 | z2 [EA]2 z2 | %181
 z2 [CE]2 z2 | x6 | x6 | x6 | x6 | x6 | x6 | x6 | x6 |] %190

